X:1
T:Miss Anne Gordon
T:Miss Anne Gordon
T:William Marshall
C:William Marshall
L:1/8
M:4/4
K:F
V:1 treble 
V:1
 A |] F/F/F F>d c<FA<f | F/F/F F>G AGD>E | F/F/F F>d c<FA<g | f<dc>A A>GDA | F/F/F F>d c<FA<f | %6
 F/F/F F>G AGD>E | F/F/F F>d c<FA<g | f<dc>A A>GDe |] f<Af<a c<fAa | f<cf>a g2 d>e | %11
 f<Af<a c>fa>g | f<A A/A/A G2 De | f<Af<a c<fAa | f<cf>a g2 d>e | f>ag>b a<fg>e | %16
 [Af]<A A/A/A A>GDA |] %17

